X:183
T:New Metar. (p)1665.PLFD.183
M:4/4
L:1/4
Q:1/2=100
S:Playford, Dancing Master,2nd Supp. to 3rd Ed.,1665
O:England
H:166
Z:Chris Partington
K:G
ggf>g|a/g/f/e/d>e|ccB>c|d/c/B/A/BG:|
|:BBBA/G/|c/B/c/d/e2|B/A/B/c/BG|B/A/B/c/Bd/c/|
BBBA/G/|c/B/c/d/e>b|a/g/f/e/dg/a/|ba/b/a>g|g4:|
